X: 1
T: Curly-Headed Ploughboy, The
Z: ABC transcription by Verge Roller
C: Trad
R: Reel
r: 32
M: 4/4
L: 1/8
K: G
|: dc | "G" B2 d2 "Em" G2 B2 | "C" E4 "G" D2 G2 | "D" FGAB "C" c2 B2 | "G" B4 "D" A2 dc |
"G" B2 d2 "Em" G2 B2 | "C" E4 "G" D2  G2 | "D" FGAB c2 F2 | "G" G6 :|
K: D
|: d2 | "A" c2 c2 cABc | "D" d2 d2 d4 | "A" c2 c2 cABc | "D" d6 d2 |
"A" c2 c2 cABc | "D" d2 A2 "G" B2 G2 | "D" F2 A2 "A" GF E2 | "D" D6 :|
